X: 25
T:KAS A BAR ACK
M:4/4
L:1/4
Q:1/4=100
C:Yves BELOTTEAU
K:C
|:AA/2c/2e2|fd/2f/2e2|dc/2B/2A/2G/2A/2c/2|1BGA/2G/2F/2E/2:|2BGA2:|!
|:AAGG|FG/2F/2E2|1AB/2c/2dd/2c/2|dd/2e/2cB:|2AB/2c/2d/2c/2d/2e/2|cBA2:|
